X:595
T: MacGillycuddy's
S: "ITM Session Tunes vol 3" ("Sully")
Z: B.Black
M: 2/4
L: 1/8
R: polka
K: G
D|GA/G/ ED|GB dB/d/|eB dG|A/B/A/G/ ED|
GA/G/ ED|GB dB/d/|ed BA|G2 G :|
B|d2 dB/d/|ed BG|c2 cB/c/|ed BG|
d2 dB/d/|ed BG|AG/A/ BA|G2 G :|
